X:1094
T:Long Drop, The
R:reel
C:Richard Twomey, Seattle, USA
Z:id:hn-reel-1094
M:C|
L:1/8
K:G
gedg edBA | GE~E2 EDB,D | ~G3A BABc | dBeB dGBd |
gedg edBA | GE~E2 EDB,D | ~G3A (3Bcd eg | dBAc BG (3Bcd :|
|: gBBA B2gB | B2gB aged | cBcd ~e3f | g2bg edBd |
gBBA B2gB | B2gB aged | cBcd edge | dBAc BG~G2 :|

